assets/logos/mailgun.svg

<svg width="80" height="80" viewBox="0 0 80 80" fill="none" xmlns="http://www.w3.org/2000/svg">
<path d="M40.3333 73.6667C58.7428 73.6667 73.6667 58.7428 73.6667 40.3333C73.6667 21.9238 58.7428 7 40.3333 7C21.9238 7 7 21.9238 7 40.3333C7 58.7428 21.9238 73.6667 40.3333 73.6667Z" fill="#C12126"/>
<path d="M40.3334 34.0292C39.0866 34.0292 37.8677 34.3989 36.831 35.0916C35.7943 35.7843 34.9863 36.7689 34.5091 37.9209C34.032 39.0728 33.9071 40.3403 34.1504 41.5632C34.3936 42.7861 34.994 43.9094 35.8757 44.7911C36.7573 45.6727 37.8806 46.2731 39.1035 46.5164C40.3264 46.7596 41.594 46.6348 42.7459 46.1576C43.8978 45.6805 44.8824 44.8725 45.5751 43.8358C46.2678 42.799 46.6376 41.5802 46.6376 40.3334C46.6376 38.6614 45.9734 37.0579 44.7911 35.8756C43.6089 34.6934 42.0054 34.0292 40.3334 34.0292ZM30.5042 40.3334C30.4888 39.0328 30.7316 37.7422 31.2186 36.5362C31.7056 35.3302 32.4271 34.2328 33.3413 33.3077C34.2555 32.3826 35.3442 31.6481 36.5443 31.1468C37.7444 30.6455 39.0321 30.3874 40.3327 30.3874C41.6333 30.3874 42.921 30.6455 44.1211 31.1468C45.3213 31.6481 46.41 32.3826 47.3242 33.3077C48.2384 34.2328 48.9599 35.3302 49.4469 36.5362C49.9338 37.7422 50.1767 39.0328 50.1612 40.3334C50.1617 40.6883 50.1431 41.0429 50.1056 41.3959C50.0823 41.6141 50.1063 41.8348 50.1759 42.043C50.2456 42.2512 50.3593 42.4419 50.5093 42.6021C50.6593 42.7624 50.842 42.8885 51.0451 42.9717C51.2482 43.055 51.4669 43.0936 51.6862 43.0847C53.3015 43.0847 53.4737 41.0014 53.4737 40.3334C53.4737 37.2672 52.4012 34.2976 50.4421 31.939C48.4829 29.5804 45.7604 27.9813 42.7463 27.4188C39.7322 26.8563 36.6162 27.3658 33.9382 28.859C31.2602 30.3523 29.1889 32.7351 28.083 35.5949C26.9771 38.4547 26.9063 41.6113 27.8829 44.5177C28.8595 47.4242 30.822 49.8976 33.4303 51.5093C36.0387 53.1211 39.1287 53.7698 42.165 53.3429C45.2013 52.9161 47.9927 51.4407 50.0556 49.1722L52.7598 51.4445C50.1636 54.3491 46.6319 56.2525 42.7782 56.824C38.9245 57.3954 34.9924 56.5988 31.665 54.5726C28.3375 52.5464 25.8251 49.4185 24.564 45.7324C23.303 42.0463 23.3731 38.035 24.7621 34.3952C26.1511 30.7554 28.7713 27.7172 32.1675 25.8085C35.5637 23.8997 39.5212 23.2409 43.3526 23.9467C47.184 24.6524 50.647 26.678 53.1402 29.6716C55.6334 32.6652 56.9991 36.4375 57.0001 40.3334C57.0001 44.0334 55.2376 47.0375 51.7001 47.0375C50.1431 47.0375 49.2001 46.3236 48.6792 45.5278C47.5502 47.3406 45.8615 48.7365 43.8685 49.5042C41.8756 50.2719 39.6868 50.3697 37.6334 49.7828C35.5799 49.1959 33.7734 47.9562 32.4872 46.2513C31.2009 44.5464 30.5048 42.469 30.5042 40.3334ZM40.3334 37.4486C40.904 37.4486 41.4617 37.6178 41.9361 37.9348C42.4105 38.2518 42.7802 38.7023 42.9985 39.2294C43.2169 39.7565 43.274 40.3366 43.1627 40.8961C43.0514 41.4557 42.7767 41.9697 42.3732 42.3732C41.9698 42.7766 41.4558 43.0513 40.8962 43.1626C40.3366 43.274 39.7566 43.2168 39.2295 42.9985C38.7024 42.7802 38.2518 42.4104 37.9349 41.936C37.6179 41.4616 37.4487 40.9039 37.4487 40.3334C37.4487 39.5683 37.7526 38.8345 38.2936 38.2935C38.8346 37.7526 39.5683 37.4486 40.3334 37.4486Z" fill="white"/>
</svg>

<svg xmlns="http://www.w3.org/2000/svg" width="80" height="80" fill="none" viewBox="0 0 80 80"><path fill="#c12126" d="M40.333 73.667c18.41 0 33.334-14.924 33.334-33.334S58.743 7 40.333 7 7 21.924 7 40.333c0 18.41 14.924 33.334 33.333 33.334"/><path fill="#fff" d="M40.333 34.03a6.304 6.304 0 1 0 0 12.608 6.304 6.304 0 0 0 0-12.609m-9.829 6.303a9.83 9.83 0 1 1 19.657 0q0 .533-.055 1.063a1.53 1.53 0 0 0 1.58 1.689c1.615 0 1.788-2.084 1.788-2.752a13.138 13.138 0 1 0-3.418 8.84l2.704 2.271A16.667 16.667 0 1 1 57 40.335c0 3.7-1.762 6.703-5.3 6.703-1.557 0-2.5-.713-3.02-1.51a9.83 9.83 0 0 1-18.176-5.194m9.83-2.884a2.885 2.885 0 1 1 0 5.769 2.885 2.885 0 0 1 0-5.77"/></svg>
